other/organicmaps.svg

<?xml version="1.0" encoding="UTF-8" standalone="no"?>
<svg
   id="SVGRoot"
   version="1.1"
   viewBox="0 0 48 48"
   height="48px"
   width="48px"
   sodipodi:docname="organicmaps.svg"
   inkscape:version="1.1 (c4e8f9ed74, 2021-05-24)"
   enable-background="new"
   inkscape:export-filename="/home/jd0g/Documents/Computer/Icons for Frost/working/fritter.png"
   inkscape:export-xdpi="96"
   inkscape:export-ydpi="96"
   xmlns:inkscape="http://www.inkscape.org/namespaces/inkscape"
   xmlns:sodipodi="http://sodipodi.sourceforge.net/DTD/sodipodi-0.dtd"
   xmlns="http://www.w3.org/2000/svg"
   xmlns:svg="http://www.w3.org/2000/svg"
   xmlns:rdf="http://www.w3.org/1999/02/22-rdf-syntax-ns#"
   xmlns:cc="http://creativecommons.org/ns#"
   xmlns:dc="http://purl.org/dc/elements/1.1/">
  <defs
     id="defs3732">
    <style
       id="style822">.a{fill:#3396cd;}.b{fill:#fff;}</style>
  </defs>
  <sodipodi:namedview
     id="base"
     pagecolor="#000000"
     bordercolor="#666666"
     borderopacity="1.0"
     inkscape:pageopacity="0"
     inkscape:pageshadow="2"
     inkscape:zoom="5.3333335"
     inkscape:cx="-5.9062498"
     inkscape:cy="44.718749"
     inkscape:document-units="px"
     inkscape:current-layer="layer1"
     showgrid="false"
     inkscape:window-width="1642"
     inkscape:window-height="741"
     inkscape:window-x="50"
     inkscape:window-y="129"
     inkscape:window-maximized="0"
     inkscape:grid-bbox="true"
     inkscape:document-rotation="0"
     inkscape:pagecheckerboard="0" />
  <metadata
     id="metadata3735">
    <rdf:RDF>
      <cc:Work
         rdf:about="">
        <dc:format>image/svg+xml</dc:format>
        <dc:type
           rdf:resource="http://purl.org/dc/dcmitype/StillImage" />
      </cc:Work>
    </rdf:RDF>
  </metadata>
  <g
     inkscape:groupmode="layer"
     id="layer1"
     inkscape:label="Layer 3"
     style="display:inline">
    <path
       fill="#449f33"
       d="m 41.88661,10.623709 c 0.932875,2.542191 -4.05795,8.722986 -8.815457,10.30908 -8.605531,-3.055382 -8.885356,2.075768 -15.928476,6.950457 8.325711,5.900943 17.047898,1.306108 16.884604,-4.501423 -6.553239,3.848433 -10.657826,4.268212 -13.013329,4.151671 7.929231,-1.609354 16.488121,-6.600577 18.281433,-8.699861 0.0017,0.09315 0.0027,0.186439 0.0027,0.27998 0,10.029227 -15.112132,24.909761 -15.112132,24.909761 0,0 -7.910673,-7.76511 -12.285172,-15.874889 C 11.289225,28.13998 7.6090739,29.511151 6.2518904,27.67342 4.7359956,25.621037 10.356486,18.740475 15.230653,16.687963 23.952712,20.746349 28.733605,10.227313 31.462203,9.6442209 23.323171,4.6995065 15.277289,6.7287632 14.367673,14.075741 18.891996,11.440135 24.442467,9.9474573 27.007772,10.064128 19.800978,11.573707 11.5458,17.03797 9.0737694,19.11374 9.0737694,10.766558 15.839732,4 24.185899,4 c 4.93567,0 9.318687,2.3662991 12.076511,6.02651 1.56e-4,-1.55e-4 4.924744,-1.6418848 5.624302,0.597199 z m -1.725705,0.746275 c -0.648216,-0.904251 -2.904726,0.151873 -2.904726,0.151873 0.315787,0.54293 0.599042,1.107209 0.846586,1.690432 0.250853,0.591097 0.46523,1.201641 0.640216,1.828452 0,1.55e-4 2.304161,-2.434548 1.417924,-3.670757 z M 7.9274332,26.820256 c 0.7007031,0.977204 3.1398198,-0.16432 3.1398198,-0.16432 -0.341582,-0.586787 -0.647585,-1.196818 -0.915208,-1.827191 -0.2711834,-0.63888 -0.5028446,-1.298736 -0.692062,-1.976256 0,0 -2.4904561,2.631543 -1.5325498,3.967767 z"
       id="path860"
       style="fill:#ffffff;fill-opacity:1;stroke-width:0.127084" />
  </g>
</svg>

<?xml version="1.0" encoding="UTF-8"?>
<svg enable-background="new" version="1.1" viewBox="0 0 48 48" xmlns="http://www.w3.org/2000/svg">
    <defs>
        <style>.a{fill:#3396cd;}.b{fill:#fff;}</style>
    </defs>
    <g>
        <path d="m41.887 10.624c0.93288 2.5422-4.058 8.723-8.8155 10.309-8.6055-3.0554-8.8854 2.0758-15.928 6.9505 8.3257 5.9009 17.048 1.3061 16.885-4.5014-6.5532 3.8484-10.658 4.2682-13.013 4.1517 7.9292-1.6094 16.488-6.6006 18.281-8.6999 0.0017 0.09315 0.0027 0.18644 0.0027 0.27998 0 10.029-15.112 24.91-15.112 24.91s-7.9107-7.7651-12.285-15.875c-0.61156-0.008505-4.2917 1.3627-5.6489-0.47506-1.5159-2.0524 4.1046-8.9329 8.9788-10.985 8.7221 4.0584 13.503-6.4606 16.232-7.0437-8.139-4.9447-16.185-2.9155-17.095 4.4315 4.5243-2.6356 10.075-4.1283 12.64-4.0116-7.2068 1.5096-15.462 6.9738-17.934 9.0496 0-8.3472 6.766-15.114 15.112-15.114 4.9357 0 9.3187 2.3663 12.077 6.0265 1.56e-4 -1.55e-4 4.9247-1.6419 5.6243 0.5972zm-1.7257 0.74628c-0.64822-0.90425-2.9047 0.15187-2.9047 0.15187 0.31579 0.54293 0.59904 1.1072 0.84659 1.6904 0.25085 0.5911 0.46523 1.2016 0.64022 1.8285 0 1.55e-4 2.3042-2.4345 1.4179-3.6708zm-32.233 15.45c0.7007 0.9772 3.1398-0.16432 3.1398-0.16432-0.34158-0.58679-0.64758-1.1968-0.91521-1.8272-0.27118-0.63888-0.50284-1.2987-0.69206-1.9763 0 0-2.4905 2.6315-1.5325 3.9678z" fill="#fff" stroke-width=".12708"/>
    </g>
</svg>
